X:1
T:Psalm 88
L:1/4
M:12/4
I:linebreak $
K:G
V:1 treble nm="Pipe Organ" snm="Org."
V:1
 E2 B A G2 F2 E2 z2 |$ G2 G F G2 A2 B2 z2 |$[M:14/4] B2 B d c2 B2 A A G2 z2 |$ %3
w: Waar- om dan, HEER, ver- stoot|U son- der me- de- ly?|Waar- om ver- berg U lang- er dan|
[M:12/4] A2 B E G2 F2 E4 |] %4
w: u aan- ge- sig vir my?|

